static/logos/circle-glyph-color.svg

<svg width="50" height="50" viewBox="0 0 50 50" fill="none" xmlns="http://www.w3.org/2000/svg">
<g clip-path="url(#clip0_1_3277)">
<path d="M25 50C38.8071 50 50 38.8071 50 25C50 11.1929 38.8071 0 25 0C11.1929 0 0 11.1929 0 25C0 38.8071 11.1929 50 25 50Z" fill="#4661EE"/>
<path d="M25.9217 36.7647C29.4825 36.7647 31.846 35.6313 33.9258 33.8053C34.2725 33.4904 34.5561 33.0182 34.5561 32.4199C34.5561 31.444 33.7053 30.6254 32.7283 30.6254C32.2556 30.6254 31.846 30.8143 31.5624 31.0662C29.9553 32.4199 28.3796 33.1756 26.0477 33.1756C21.825 33.1756 18.7683 29.6809 18.7683 25.3676V25.3047C18.7683 20.9914 21.8565 17.5282 26.0477 17.5282C28.159 17.5282 29.7977 18.2838 31.3103 19.5117C31.5623 19.7006 31.9405 19.8895 32.4763 19.8895C33.5477 19.8895 34.3986 19.0709 34.3986 18.0005C34.3986 17.3079 34.0519 16.7726 33.6422 16.4578C31.72 14.9781 29.4825 13.9706 26.0792 13.9706C19.3985 13.9706 14.7031 19.1024 14.7031 25.3676V25.4306C14.7031 31.7588 19.4931 36.7647 25.9217 36.7647Z" fill="white"/>
</g>
<defs>
<clipPath id="clip0_1_3277">
<rect width="50" height="50" fill="white"/>
</clipPath>
</defs>
</svg>

<svg xmlns="http://www.w3.org/2000/svg" width="64" height="64" fill="none" viewBox="0 0 50 50"><g clip-path="url(#a)"><path fill="#4661EE" d="M25 50c13.807 0 25-11.193 25-25S38.807 0 25 0 0 11.193 0 25s11.193 25 25 25Z"/><path fill="#fff" d="M25.922 36.765c3.56 0 5.924-1.134 8.004-2.96a1.86 1.86 0 0 0 .63-1.385c0-.976-.85-1.795-1.828-1.795-.472 0-.882.19-1.166.441-1.607 1.354-3.182 2.11-5.514 2.11-4.223 0-7.28-3.495-7.28-7.808v-.063c0-4.314 3.088-7.777 7.28-7.777 2.111 0 3.75.756 5.262 1.984.252.189.63.378 1.166.378 1.072 0 1.923-.82 1.923-1.89 0-.692-.347-1.227-.757-1.542-1.922-1.48-4.16-2.487-7.563-2.487-6.68 0-11.376 5.131-11.376 11.397v.063c0 6.328 4.79 11.334 11.219 11.334Z"/></g><defs><clipPath id="a"><path fill="#fff" d="M0 0h50v50H0z"/></clipPath></defs></svg>
